X: 503
T: la prapoutische
C: B. Letron
M: 4/4
L: 1/8
R: schottische
K: Amin
|:"Dm"d2Ac AdcA-|"F"AFAF dcBd|"C"c2Bc BdcB-|"G"BGBc "Em"dcde|
|"Dm"d2Ac AdcA-|"F"AFAF dcBd|"C"c2Bc edcd-|"G"dGBc "Em"dcde-:|
|:"Am"a2ed eaed-|"F"dAde Adea|"C"g2eB egeB-|"G"BeBe "Em"gBeg|
|"Am"a2ed eaed-|"F"dAde Adea|"C"g2eB egeB-|"G"B2"G"B2"Em"B4:|
